(Design File: /Users/michaelnewham/Google Drive (1)/1 FabLab_&_Hacker_Resources/1. Equipment/2. CNC_Machine - Shapoko, Files, Etc./Gcode Cut Files/Wasteboard_Levelling.c2d)
(stockMin:0.00mm, 0.00mm, -4.00mm)
(stockMax:804.00mm, 787.00mm, 0.00mm)
(STOCK/BLOCK,804.00, 787.00, 4.00,0.00, 0.00, 4.00)
G90
G21
(Move to safe Z to avoid workholding)
G53G0Z-5.000
(Wasteboard_Levelling)
M05
(TOOL/MILL,20.00, 0.00, 0.00, 0.00)
M6T101
M03S18000
(PREPOSITION FOR RAPID PLUNGE)
G0X390.00Y390.00
Z5.00
G1Z-0.64F50.0
Y397.00F2286.0
X414.00
Y390.00
X390.00
X380.00Y380.00
Y407.00
X424.00
Y380.00
X380.00
X370.00Y370.00
Y417.00
X434.00
Y370.00
X370.00
X360.00Y360.00
Y427.00
X444.00
Y360.00
X360.00
X350.00Y350.00
Y437.00
X454.00
Y350.00
X350.00
X340.00Y340.00
Y447.00
X464.00
Y340.00
X340.00
X330.00Y330.00
Y457.00
X474.00
Y330.00
X330.00
X320.00Y320.00
Y467.00
X484.00
Y320.00
X320.00
X310.00Y310.00
Y477.00
X494.00
Y310.00
X310.00
X300.00Y300.00
Y487.00
X504.00
Y300.00
X300.00
X290.00Y290.00
Y497.00
X514.00
Y290.00
X290.00
X280.00Y280.00
Y507.00
X524.00
Y280.00
X280.00
X270.00Y270.00
Y517.00
X534.00
Y270.00
X270.00
X260.00Y260.00
Y527.00
X544.00
Y260.00
X260.00
X250.00Y250.00
Y537.00
X554.00
Y250.00
X250.00
X240.00Y240.00
Y547.00
X564.00
Y240.00
X240.00
X230.00Y230.00
Y557.00
X574.00
Y230.00
X230.00
X220.00Y220.00
Y567.00
X584.00
Y220.00
X220.00
X210.00Y210.00
Y577.00
X594.00
Y210.00
X210.00
X200.00Y200.00
Y587.00
X604.00
Y200.00
X200.00
X190.00Y190.00
Y597.00
X614.00
Y190.00
X190.00
X180.00Y180.00
Y607.00
X624.00
Y180.00
X180.00
X170.00Y170.00
Y617.00
X634.00
Y170.00
X170.00
X160.00Y160.00
Y627.00
X644.00
Y160.00
X160.00
X150.00Y150.00
Y637.00
X654.00
Y150.00
X150.00
X140.00Y140.00
Y647.00
X664.00
Y140.00
X140.00
X130.00Y130.00
Y657.00
X674.00
Y130.00
X130.00
X120.00Y120.00
Y667.00
X684.00
Y120.00
X120.00
X110.00Y110.00
Y677.00
X694.00
Y110.00
X110.00
X100.00Y100.00
Y687.00
X704.00
Y100.00
X100.00
X90.00Y90.00
Y697.00
X714.00
Y90.00
X90.00
X80.00Y80.00
Y707.00
X724.00
Y80.00
X80.00
X70.00Y70.00
Y717.00
X734.00
Y70.00
X70.00
X60.00Y60.00
Y727.00
X744.00
Y60.00
X60.00
X50.00Y50.00
Y737.00
X754.00
Y50.00
X50.00
X40.00Y40.00
Y747.00
X764.00
Y40.00
X40.00
X30.00Y30.00
Y757.00
X774.00
Y30.00
X30.00
X20.00Y20.00
Y767.00
X784.00
Y20.00
X20.00
X10.00Y10.00
Y777.00
X794.00
Y10.00
X10.00
Z5.00
G0X390.00Y390.00
G1Z-1.27F50.0
Y397.00F2286.0
X414.00
Y390.00
X390.00
X380.00Y380.00
Y407.00
X424.00
Y380.00
X380.00
X370.00Y370.00
Y417.00
X434.00
Y370.00
X370.00
X360.00Y360.00
Y427.00
X444.00
Y360.00
X360.00
X350.00Y350.00
Y437.00
X454.00
Y350.00
X350.00
X340.00Y340.00
Y447.00
X464.00
Y340.00
X340.00
X330.00Y330.00
Y457.00
X474.00
Y330.00
X330.00
X320.00Y320.00
Y467.00
X484.00
Y320.00
X320.00
X310.00Y310.00
Y477.00
X494.00
Y310.00
X310.00
X300.00Y300.00
Y487.00
X504.00
Y300.00
X300.00
X290.00Y290.00
Y497.00
X514.00
Y290.00
X290.00
X280.00Y280.00
Y507.00
X524.00
Y280.00
X280.00
X270.00Y270.00
Y517.00
X534.00
Y270.00
X270.00
X260.00Y260.00
Y527.00
X544.00
Y260.00
X260.00
X250.00Y250.00
Y537.00
X554.00
Y250.00
X250.00
X240.00Y240.00
Y547.00
X564.00
Y240.00
X240.00
X230.00Y230.00
Y557.00
X574.00
Y230.00
X230.00
X220.00Y220.00
Y567.00
X584.00
Y220.00
X220.00
X210.00Y210.00
Y577.00
X594.00
Y210.00
X210.00
X200.00Y200.00
Y587.00
X604.00
Y200.00
X200.00
X190.00Y190.00
Y597.00
X614.00
Y190.00
X190.00
X180.00Y180.00
Y607.00
X624.00
Y180.00
X180.00
X170.00Y170.00
Y617.00
X634.00
Y170.00
X170.00
X160.00Y160.00
Y627.00
X644.00
Y160.00
X160.00
X150.00Y150.00
Y637.00
X654.00
Y150.00
X150.00
X140.00Y140.00
Y647.00
X664.00
Y140.00
X140.00
X130.00Y130.00
Y657.00
X674.00
Y130.00
X130.00
X120.00Y120.00
Y667.00
X684.00
Y120.00
X120.00
X110.00Y110.00
Y677.00
X694.00
Y110.00
X110.00
X100.00Y100.00
Y687.00
X704.00
Y100.00
X100.00
X90.00Y90.00
Y697.00
X714.00
Y90.00
X90.00
X80.00Y80.00
Y707.00
X724.00
Y80.00
X80.00
X70.00Y70.00
Y717.00
X734.00
Y70.00
X70.00
X60.00Y60.00
Y727.00
X744.00
Y60.00
X60.00
X50.00Y50.00
Y737.00
X754.00
Y50.00
X50.00
X40.00Y40.00
Y747.00
X764.00
Y40.00
X40.00
X30.00Y30.00
Y757.00
X774.00
Y30.00
X30.00
X20.00Y20.00
Y767.00
X784.00
Y20.00
X20.00
X10.00Y10.00
Y777.00
X794.00
Y10.00
X10.00
Z5.00
G0X390.00Y390.00
G1Z-1.91F50.0
Y397.00F2286.0
X414.00
Y390.00
X390.00
X380.00Y380.00
Y407.00
X424.00
Y380.00
X380.00
X370.00Y370.00
Y417.00
X434.00
Y370.00
X370.00
X360.00Y360.00
Y427.00
X444.00
Y360.00
X360.00
X350.00Y350.00
Y437.00
X454.00
Y350.00
X350.00
X340.00Y340.00
Y447.00
X464.00
Y340.00
X340.00
X330.00Y330.00
Y457.00
X474.00
Y330.00
X330.00
X320.00Y320.00
Y467.00
X484.00
Y320.00
X320.00
X310.00Y310.00
Y477.00
X494.00
Y310.00
X310.00
X300.00Y300.00
Y487.00
X504.00
Y300.00
X300.00
X290.00Y290.00
Y497.00
X514.00
Y290.00
X290.00
X280.00Y280.00
Y507.00
X524.00
Y280.00
X280.00
X270.00Y270.00
Y517.00
X534.00
Y270.00
X270.00
X260.00Y260.00
Y527.00
X544.00
Y260.00
X260.00
X250.00Y250.00
Y537.00
X554.00
Y250.00
X250.00
X240.00Y240.00
Y547.00
X564.00
Y240.00
X240.00
X230.00Y230.00
Y557.00
X574.00
Y230.00
X230.00
X220.00Y220.00
Y567.00
X584.00
Y220.00
X220.00
X210.00Y210.00
Y577.00
X594.00
Y210.00
X210.00
X200.00Y200.00
Y587.00
X604.00
Y200.00
X200.00
X190.00Y190.00
Y597.00
X614.00
Y190.00
X190.00
X180.00Y180.00
Y607.00
X624.00
Y180.00
X180.00
X170.00Y170.00
Y617.00
X634.00
Y170.00
X170.00
X160.00Y160.00
Y627.00
X644.00
Y160.00
X160.00
X150.00Y150.00
Y637.00
X654.00
Y150.00
X150.00
X140.00Y140.00
Y647.00
X664.00
Y140.00
X140.00
X130.00Y130.00
Y657.00
X674.00
Y130.00
X130.00
X120.00Y120.00
Y667.00
X684.00
Y120.00
X120.00
X110.00Y110.00
Y677.00
X694.00
Y110.00
X110.00
X100.00Y100.00
Y687.00
X704.00
Y100.00
X100.00
X90.00Y90.00
Y697.00
X714.00
Y90.00
X90.00
X80.00Y80.00
Y707.00
X724.00
Y80.00
X80.00
X70.00Y70.00
Y717.00
X734.00
Y70.00
X70.00
X60.00Y60.00
Y727.00
X744.00
Y60.00
X60.00
X50.00Y50.00
Y737.00
X754.00
Y50.00
X50.00
X40.00Y40.00
Y747.00
X764.00
Y40.00
X40.00
X30.00Y30.00
Y757.00
X774.00
Y30.00
X30.00
X20.00Y20.00
Y767.00
X784.00
Y20.00
X20.00
X10.00Y10.00
Y777.00
X794.00
Y10.00
X10.00
Z5.00
G0X390.00Y390.00
G1Z-2.54F50.0
Y397.00F2286.0
X414.00
Y390.00
X390.00
X380.00Y380.00
Y407.00
X424.00
Y380.00
X380.00
X370.00Y370.00
Y417.00
X434.00
Y370.00
X370.00
X360.00Y360.00
Y427.00
X444.00
Y360.00
X360.00
X350.00Y350.00
Y437.00
X454.00
Y350.00
X350.00
X340.00Y340.00
Y447.00
X464.00
Y340.00
X340.00
X330.00Y330.00
Y457.00
X474.00
Y330.00
X330.00
X320.00Y320.00
Y467.00
X484.00
Y320.00
X320.00
X310.00Y310.00
Y477.00
X494.00
Y310.00
X310.00
X300.00Y300.00
Y487.00
X504.00
Y300.00
X300.00
X290.00Y290.00
Y497.00
X514.00
Y290.00
X290.00
X280.00Y280.00
Y507.00
X524.00
Y280.00
X280.00
X270.00Y270.00
Y517.00
X534.00
Y270.00
X270.00
X260.00Y260.00
Y527.00
X544.00
Y260.00
X260.00
X250.00Y250.00
Y537.00
X554.00
Y250.00
X250.00
X240.00Y240.00
Y547.00
X564.00
Y240.00
X240.00
X230.00Y230.00
Y557.00
X574.00
Y230.00
X230.00
X220.00Y220.00
Y567.00
X584.00
Y220.00
X220.00
X210.00Y210.00
Y577.00
X594.00
Y210.00
X210.00
X200.00Y200.00
Y587.00
X604.00
Y200.00
X200.00
X190.00Y190.00
Y597.00
X614.00
Y190.00
X190.00
X180.00Y180.00
Y607.00
X624.00
Y180.00
X180.00
X170.00Y170.00
Y617.00
X634.00
Y170.00
X170.00
X160.00Y160.00
Y627.00
X644.00
Y160.00
X160.00
X150.00Y150.00
Y637.00
X654.00
Y150.00
X150.00
X140.00Y140.00
Y647.00
X664.00
Y140.00
X140.00
X130.00Y130.00
Y657.00
X674.00
Y130.00
X130.00
X120.00Y120.00
Y667.00
X684.00
Y120.00
X120.00
X110.00Y110.00
Y677.00
X694.00
Y110.00
X110.00
X100.00Y100.00
Y687.00
X704.00
Y100.00
X100.00
X90.00Y90.00
Y697.00
X714.00
Y90.00
X90.00
X80.00Y80.00
Y707.00
X724.00
Y80.00
X80.00
X70.00Y70.00
Y717.00
X734.00
Y70.00
X70.00
X60.00Y60.00
Y727.00
X744.00
Y60.00
X60.00
X50.00Y50.00
Y737.00
X754.00
Y50.00
X50.00
X40.00Y40.00
Y747.00
X764.00
Y40.00
X40.00
X30.00Y30.00
Y757.00
X774.00
Y30.00
X30.00
X20.00Y20.00
Y767.00
X784.00
Y20.00
X20.00
X10.00Y10.00
Y777.00
X794.00
Y10.00
X10.00
Z5.00
G0X390.00Y390.00
G1Z-3.17F50.0
Y397.00F2286.0
X414.00
Y390.00
X390.00
X380.00Y380.00
Y407.00
X424.00
Y380.00
X380.00
X370.00Y370.00
Y417.00
X434.00
Y370.00
X370.00
X360.00Y360.00
Y427.00
X444.00
Y360.00
X360.00
X350.00Y350.00
Y437.00
X454.00
Y350.00
X350.00
X340.00Y340.00
Y447.00
X464.00
Y340.00
X340.00
X330.00Y330.00
Y457.00
X474.00
Y330.00
X330.00
X320.00Y320.00
Y467.00
X484.00
Y320.00
X320.00
X310.00Y310.00
Y477.00
X494.00
Y310.00
X310.00
X300.00Y300.00
Y487.00
X504.00
Y300.00
X300.00
X290.00Y290.00
Y497.00
X514.00
Y290.00
X290.00
X280.00Y280.00
Y507.00
X524.00
Y280.00
X280.00
X270.00Y270.00
Y517.00
X534.00
Y270.00
X270.00
X260.00Y260.00
Y527.00
X544.00
Y260.00
X260.00
X250.00Y250.00
Y537.00
X554.00
Y250.00
X250.00
X240.00Y240.00
Y547.00
X564.00
Y240.00
X240.00
X230.00Y230.00
Y557.00
X574.00
Y230.00
X230.00
X220.00Y220.00
Y567.00
X584.00
Y220.00
X220.00
X210.00Y210.00
Y577.00
X594.00
Y210.00
X210.00
X200.00Y200.00
Y587.00
X604.00
Y200.00
X200.00
X190.00Y190.00
Y597.00
X614.00
Y190.00
X190.00
X180.00Y180.00
Y607.00
X624.00
Y180.00
X180.00
X170.00Y170.00
Y617.00
X634.00
Y170.00
X170.00
X160.00Y160.00
Y627.00
X644.00
Y160.00
X160.00
X150.00Y150.00
Y637.00
X654.00
Y150.00
X150.00
X140.00Y140.00
Y647.00
X664.00
Y140.00
X140.00
X130.00Y130.00
Y657.00
X674.00
Y130.00
X130.00
X120.00Y120.00
Y667.00
X684.00
Y120.00
X120.00
X110.00Y110.00
Y677.00
X694.00
Y110.00
X110.00
X100.00Y100.00
Y687.00
X704.00
Y100.00
X100.00
X90.00Y90.00
Y697.00
X714.00
Y90.00
X90.00
X80.00Y80.00
Y707.00
X724.00
Y80.00
X80.00
X70.00Y70.00
Y717.00
X734.00
Y70.00
X70.00
X60.00Y60.00
Y727.00
X744.00
Y60.00
X60.00
X50.00Y50.00
Y737.00
X754.00
Y50.00
X50.00
X40.00Y40.00
Y747.00
X764.00
Y40.00
X40.00
X30.00Y30.00
Y757.00
X774.00
Y30.00
X30.00
X20.00Y20.00
Y767.00
X784.00
Y20.00
X20.00
X10.00Y10.00
Y777.00
X794.00
Y10.00
X10.00
Z5.00
G0X390.00Y390.00
G1Z-3.81F50.0
Y397.00F2286.0
X414.00
Y390.00
X390.00
X380.00Y380.00
Y407.00
X424.00
Y380.00
X380.00
X370.00Y370.00
Y417.00
X434.00
Y370.00
X370.00
X360.00Y360.00
Y427.00
X444.00
Y360.00
X360.00
X350.00Y350.00
Y437.00
X454.00
Y350.00
X350.00
X340.00Y340.00
Y447.00
X464.00
Y340.00
X340.00
X330.00Y330.00
Y457.00
X474.00
Y330.00
X330.00
X320.00Y320.00
Y467.00
X484.00
Y320.00
X320.00
X310.00Y310.00
Y477.00
X494.00
Y310.00
X310.00
X300.00Y300.00
Y487.00
X504.00
Y300.00
X300.00
X290.00Y290.00
Y497.00
X514.00
Y290.00
X290.00
X280.00Y280.00
Y507.00
X524.00
Y280.00
X280.00
X270.00Y270.00
Y517.00
X534.00
Y270.00
X270.00
X260.00Y260.00
Y527.00
X544.00
Y260.00
X260.00
X250.00Y250.00
Y537.00
X554.00
Y250.00
X250.00
X240.00Y240.00
Y547.00
X564.00
Y240.00
X240.00
X230.00Y230.00
Y557.00
X574.00
Y230.00
X230.00
X220.00Y220.00
Y567.00
X584.00
Y220.00
X220.00
X210.00Y210.00
Y577.00
X594.00
Y210.00
X210.00
X200.00Y200.00
Y587.00
X604.00
Y200.00
X200.00
X190.00Y190.00
Y597.00
X614.00
Y190.00
X190.00
X180.00Y180.00
Y607.00
X624.00
Y180.00
X180.00
X170.00Y170.00
Y617.00
X634.00
Y170.00
X170.00
X160.00Y160.00
Y627.00
X644.00
Y160.00
X160.00
X150.00Y150.00
Y637.00
X654.00
Y150.00
X150.00
X140.00Y140.00
Y647.00
X664.00
Y140.00
X140.00
X130.00Y130.00
Y657.00
X674.00
Y130.00
X130.00
X120.00Y120.00
Y667.00
X684.00
Y120.00
X120.00
X110.00Y110.00
Y677.00
X694.00
Y110.00
X110.00
X100.00Y100.00
Y687.00
X704.00
Y100.00
X100.00
X90.00Y90.00
Y697.00
X714.00
Y90.00
X90.00
X80.00Y80.00
Y707.00
X724.00
Y80.00
X80.00
X70.00Y70.00
Y717.00
X734.00
Y70.00
X70.00
X60.00Y60.00
Y727.00
X744.00
Y60.00
X60.00
X50.00Y50.00
Y737.00
X754.00
Y50.00
X50.00
X40.00Y40.00
Y747.00
X764.00
Y40.00
X40.00
X30.00Y30.00
Y757.00
X774.00
Y30.00
X30.00
X20.00Y20.00
Y767.00
X784.00
Y20.00
X20.00
X10.00Y10.00
Y777.00
X794.00
Y10.00
X10.00
Z5.00
G0X390.00Y390.00
G1Z-4.00F50.0
Y397.00F2286.0
X414.00
Y390.00
X390.00
X380.00Y380.00
Y407.00
X424.00
Y380.00
X380.00
X370.00Y370.00
Y417.00
X434.00
Y370.00
X370.00
X360.00Y360.00
Y427.00
X444.00
Y360.00
X360.00
X350.00Y350.00
Y437.00
X454.00
Y350.00
X350.00
X340.00Y340.00
Y447.00
X464.00
Y340.00
X340.00
X330.00Y330.00
Y457.00
X474.00
Y330.00
X330.00
X320.00Y320.00
Y467.00
X484.00
Y320.00
X320.00
X310.00Y310.00
Y477.00
X494.00
Y310.00
X310.00
X300.00Y300.00
Y487.00
X504.00
Y300.00
X300.00
X290.00Y290.00
Y497.00
X514.00
Y290.00
X290.00
X280.00Y280.00
Y507.00
X524.00
Y280.00
X280.00
X270.00Y270.00
Y517.00
X534.00
Y270.00
X270.00
X260.00Y260.00
Y527.00
X544.00
Y260.00
X260.00
X250.00Y250.00
Y537.00
X554.00
Y250.00
X250.00
X240.00Y240.00
Y547.00
X564.00
Y240.00
X240.00
X230.00Y230.00
Y557.00
X574.00
Y230.00
X230.00
X220.00Y220.00
Y567.00
X584.00
Y220.00
X220.00
X210.00Y210.00
Y577.00
X594.00
Y210.00
X210.00
X200.00Y200.00
Y587.00
X604.00
Y200.00
X200.00
X190.00Y190.00
Y597.00
X614.00
Y190.00
X190.00
X180.00Y180.00
Y607.00
X624.00
Y180.00
X180.00
X170.00Y170.00
Y617.00
X634.00
Y170.00
X170.00
X160.00Y160.00
Y627.00
X644.00
Y160.00
X160.00
X150.00Y150.00
Y637.00
X654.00
Y150.00
X150.00
X140.00Y140.00
Y647.00
X664.00
Y140.00
X140.00
X130.00Y130.00
Y657.00
X674.00
Y130.00
X130.00
X120.00Y120.00
Y667.00
X684.00
Y120.00
X120.00
X110.00Y110.00
Y677.00
X694.00
Y110.00
X110.00
X100.00Y100.00
Y687.00
X704.00
Y100.00
X100.00
X90.00Y90.00
Y697.00
X714.00
Y90.00
X90.00
X80.00Y80.00
Y707.00
X724.00
Y80.00
X80.00
X70.00Y70.00
Y717.00
X734.00
Y70.00
X70.00
X60.00Y60.00
Y727.00
X744.00
Y60.00
X60.00
X50.00Y50.00
Y737.00
X754.00
Y50.00
X50.00
X40.00Y40.00
Y747.00
X764.00
Y40.00
X40.00
X30.00Y30.00
Y757.00
X774.00
Y30.00
X30.00
X20.00Y20.00
Y767.00
X784.00
Y20.00
X20.00
X10.00Y10.00
Y777.00
X794.00
Y10.00
X10.00
Z5.00
M02
